www/assets/icons/numbers.svg

<svg width="24" height="24" viewBox="0 0 24 24" xmlns="http://www.w3.org/2000/svg" fill='currentColor'><path d="M20.5 10L21 8H17L18 4H16L15 8H11L12 4H10L9 8H5L4.5 10H8.5L7.5 14H3.5L3 16H7L6 20H8L9 16H13L12 20H14L15 16H19L19.5 14H15.5L16.5 10H20.5ZM13.5 14H9.5L10.5 10H14.5L13.5 14Z"/></svg>

<svg xmlns="http://www.w3.org/2000/svg" width="24" height="24" viewBox="0 0 24 24" fill='currentColor'><path d="m20.5 10 .5-2h-4l1-4h-2l-1 4h-4l1-4h-2L9 8H5l-.5 2h4l-1 4h-4L3 16h4l-1 4h2l1-4h4l-1 4h2l1-4h4l.5-2h-4l1-4zm-7 4h-4l1-4h4z"/></svg>
